X: 77
T: Mistwold
C: R-35
C: Dudley Laufman
M: C|
Z: Transcribed to abc by Mary Lou Knack
R: reel
K: Bb
F2| "Bb"B2c2 d2e2| f4 d3f| "F"e4 c3e| "Bb"d2cB "F"c2F2|
    "Bb"B2c2 d2e2| f4 d3f| "F"e2c2 B2A2|1 "Bb"B6 :|2 "Bb"B3c d2e2|]
\
|: "Bb"f4 d3f| "F"e4 c3e| "Gm"d3c B2d2| "F"c4 F4|
   "Eb"G4 "F"A4| "Bb"B4 "Eb"c2e2| "Bb"d4 "F"c4|1 "Bb"B3c d3e :|2 "Bb"B6 |]
%%text 9/1/98.  See R-56 for key of G.
%%vskip 1cm
%%textfont       Times-Roman 13.0
%%text R-35, "The Ash Grove" moved to W-36
%%textfont       Times-Roman 9.0
% ---------- page 40 ----------
